dist/img/sprites/dislike.svg

<svg width="24" height="25" viewBox="0 0 24 25" fill="none" xmlns="http://www.w3.org/2000/svg">
<path d="M14.9961 14.497L14.2561 14.62C14.2382 14.5126 14.244 14.4026 14.2729 14.2976C14.3019 14.1926 14.3534 14.0952 14.4238 14.0121C14.4942 13.929 14.5819 13.8623 14.6807 13.8165C14.7796 13.7707 14.8872 13.747 14.9961 13.747L14.9961 14.497ZM3.99609 14.497V15.247C3.79718 15.247 3.60642 15.168 3.46576 15.0274C3.32511 14.8867 3.24609 14.696 3.24609 14.497H3.99609ZM5.99609 3.74705H17.3561V5.24705H5.99609V3.74705ZM18.5561 15.247H14.9961L14.9961 13.747H18.5561V15.247ZM15.7361 14.374L16.5421 19.209L15.0621 19.456L14.2561 14.62L15.7361 14.374ZM14.8161 21.247H14.6021V19.747H14.8151L14.8161 21.247ZM11.4811 19.577L8.96609 15.804L10.2141 14.972L12.7291 18.745L11.4811 19.577ZM7.92609 15.247H3.99609V13.747H7.92609V15.247ZM3.24609 14.497L3.24609 6.49705H4.74609L4.74609 14.497H3.24609ZM20.0531 5.95705L21.2531 11.957L19.7831 12.252L18.5831 6.25205L20.0531 5.95705ZM8.96609 15.804C8.85199 15.6328 8.69737 15.4933 8.51594 15.3961C8.33451 15.299 8.1319 15.2481 7.92609 15.248V13.748C8.84609 13.748 9.70409 14.207 10.2141 14.972L8.96609 15.804ZM16.5421 19.209C16.5838 19.4597 16.5704 19.7174 16.5028 19.9623C16.4353 20.2072 16.3152 20.4345 16.1509 20.6284C15.9867 20.8222 15.7822 20.978 15.5517 21.0848C15.3212 21.1916 15.0702 21.247 14.8161 21.247L14.8151 19.747C14.8513 19.747 14.8881 19.739 14.921 19.7237C14.9539 19.7084 14.983 19.6861 15.0064 19.6584C15.0298 19.6308 15.0469 19.5983 15.0565 19.5634C15.0661 19.5284 15.068 19.4918 15.0621 19.456L16.5421 19.209ZM18.5561 13.748C19.3461 13.748 19.9361 13.026 19.7821 12.253L21.2531 11.958C21.3327 12.357 21.3228 12.7695 21.2241 13.1642C21.1254 13.5588 20.9404 13.9266 20.6825 14.2411C20.4245 14.5556 20.1 14.8089 19.7323 14.9829C19.3646 15.1569 18.9629 15.2471 18.5561 15.247V13.748ZM17.3561 3.74705C17.9918 3.74692 18.6079 3.96805 19.0996 4.37097C19.5913 4.77389 19.9283 5.33472 20.0531 5.95805L18.5831 6.25305C18.5264 5.96945 18.3731 5.71428 18.1494 5.53102C17.9257 5.34776 17.6453 5.24676 17.3561 5.24705V3.74705ZM14.6021 21.247C13.9848 21.247 13.377 21.0956 12.8327 20.8042C12.2884 20.5129 11.8245 20.0917 11.4821 19.578L12.7291 18.745C12.9346 19.0534 13.2132 19.3072 13.5399 19.482C13.8667 19.6568 14.2315 19.7472 14.6021 19.747V21.247ZM5.99609 5.24705C5.30609 5.24705 4.74609 5.80705 4.74609 6.49705H3.24609C3.24609 5.7677 3.53582 5.06823 4.05155 4.5525C4.56727 4.03678 5.26675 3.74705 5.99609 3.74705V5.24705Z" fill="currentColor"/>
<path d="M7.99609 14.498L7.99609 4.49805" stroke="currentColor" stroke-width="1.5"/>
</svg>

<svg width="24" height="25" viewBox="0 0 24 25" fill="none" xmlns="http://www.w3.org/2000/svg"><path d="M14.996 14.497l-.74.123a.75.75 0 01.74-.873v.75zm-11 0v.75a.75.75 0 01-.75-.75h.75zm2-10.75h11.36v1.5H5.996v-1.5zm12.56 11.5h-3.56v-1.5h3.56v1.5zm-2.82-.873l.806 4.835-1.48.247-.806-4.836 1.48-.246zm-.92 6.873h-.214v-1.5h.213l.001 1.5zm-3.335-1.67l-2.515-3.773 1.248-.832 2.515 3.773-1.248.832zm-3.555-4.33h-3.93v-1.5h3.93v1.5zm-4.68-.75v-8h1.5v8h-1.5zm16.807-8.54l1.2 6-1.47.295-1.2-6 1.47-.295zM8.966 15.804a1.248 1.248 0 00-1.04-.556v-1.5c.92 0 1.778.459 2.288 1.224l-1.248.832zm7.576 3.405a1.753 1.753 0 01-.99 1.876 1.75 1.75 0 01-.736.162v-1.5a.253.253 0 00.19-.089.25.25 0 00.056-.202l1.48-.247zm2.014-5.461c.79 0 1.38-.722 1.226-1.495l1.471-.295a2.754 2.754 0 01-1.52 3.025c-.368.174-.77.264-1.177.264v-1.499zm-1.2-10a2.75 2.75 0 012.697 2.21l-1.47.295a1.25 1.25 0 00-1.227-1.006v-1.5zm-2.754 17.499a3.748 3.748 0 01-3.12-1.669l1.247-.833a2.252 2.252 0 001.873 1.002v1.5zm-8.606-16c-.69 0-1.25.56-1.25 1.25h-1.5a2.75 2.75 0 012.75-2.75v1.5z" fill="currentColor"/><path d="M7.996 14.498v-10" stroke="currentColor" stroke-width="1.5"/></svg>
